X:1
T:Meerut, 87.87 D
T:Meerut, 87.87 D
T:Winnie M. Gabrielson, 1906
T:Public Domain Courtesy of the Cyber Hymnal™
C:Winnie M. Gabrielson, 1906
Z:Public Domain
Z:Courtesy of the Cyber Hymnal™
%%score ( 1 2 ) ( 3 4 )
L:1/8
Q:1/4=108
M:9/8
K:Ab
V:1 treble 
V:2 treble 
V:3 bass 
V:4 bass 
V:1
 ([Ec][=D=B])[Ec] | [CA]3 [CE]3 ([Ec][=D=B])[Ec] | [DB]3 [DF]3 (Bc)[Fd] | [EG]3 [Ed]3 [Ec]2 [EB] | %4
 [Ec]6 (cd)[Ee] | [EA]3 [Ec]3 (Bc)[Fd] | [DF]3 [DB]3 AG[_B,F] | [CE]2 [CA] [Ec]3 [DB]3 | %8
 [CA]6 (EG)B | d3 G3 [Ec]2 [DB] | [CA]3 [CE]3 A2 A | A3 C (c2 C) [=DB]2 [DF] | [DB]6 c2 d | %13
 e3 e3 (cB)[EA] | [DB]3 [DF]3 (AG)[_B,F] | [CE]2 [CA] [Ec]3 [DB]3 | [CA]6 |] %17
V:2
 x3 | x9 | x6 F2 x | x9 | x6 E3 | x6 F2 x | x6 =B,2 x | x9 | x9 | (G2 G) (E2 E) x3 | x9 | %11
 (C2 C3) x5 | x9 | (A2 A) (A2 A) E2 x | x6 =B,2 x | x9 | x6 |] %17
V:3
 [A,,A,]2 [A,,A,] | [A,,E,]3 [A,,A,]3 [A,,A,]2 [A,,A,] | [D,F,]3 [D,B,]3 ([D,B,][C,=A,])[C,B,] | %3
 [E,B,]3 [E,B,]3 [E,A,]2 [E,G,] | A,6 (A,B,)[A,C] | [A,C]3 A,3 [D,A,]2 [D,A,] | %6
 [D,A,]3 [D,F,]3 [=D,F,]2 [D,A,] | [E,A,]2 [E,A,] [E,A,]3 [E,G,]3 | [A,,A,]6 z3 | %9
 ([E,B,]2 [E,B,]) ([E,B,]2 [E,B,]) [E,G,]2 [E,G,] | [A,,A,]3 [A,,A,]3 z3 | %11
 ([F,A,]2 [F,A,]) ([F,A,]2 [F,A,]) [B,,A,]2 [B,,A,] x | [E,G,]6 z3 | %13
 ([A,C]2 [A,C]) ([A,C]2 [A,C]) ([A,,A,][B,,G,])[C,A,] | [D,F,]3 [D,B,]3 [=D,F,]2 [D,A,] | %15
 [E,A,]2 [E,A,] [E,A,]3 [E,G,]3 | [A,,A,]6 |] %17
V:4
 x3 | x9 | x9 | x9 | A,6 A,2 x | x3 A,3 x3 | x9 | x9 | x9 | x9 | x9 | x10 | x9 | x9 | x9 | x9 | %16
 x6 |] %17

